icon/ir/coin.svg

<svg stroke-width="1.5" viewBox="0 0 24 24" fill="none" xmlns="http://www.w3.org/2000/svg" height="1em" width="1em">
  <path d="M12 22C17.5228 22 22 17.5228 22 12C22 6.47715 17.5228 2 12 2C6.47715 2 2 6.47715 2 12C2 17.5228 6.47715 22 12 22Z" stroke="currentColor" stroke-linecap="round" stroke-linejoin="round"/>
  <path d="M15 8.5C14.315 7.81501 13.1087 7.33855 12 7.30872M9 15C9.64448 15.8593 10.8428 16.3494 12 16.391M12 7.30872C10.6809 7.27322 9.5 7.86998 9.5 9.50001C9.5 12.5 15 11 15 14C15 15.711 13.5362 16.4462 12 16.391M12 7.30872V5.5M12 16.391V18.5" stroke="currentColor" stroke-linecap="round" stroke-linejoin="round"/>
</svg>

<svg width="24" height="24" stroke-width="1.5" fill="none" xmlns="http://www.w3.org/2000/svg"><path d="M12 22c5.523 0 10-4.477 10-10S17.523 2 12 2 2 6.477 2 12s4.477 10 10 10Z" stroke="currentColor" stroke-linecap="round" stroke-linejoin="round"/><path d="M15 8.5c-.685-.685-1.891-1.161-3-1.191M9 15c.644.86 1.843 1.35 3 1.391m0-9.082c-1.32-.036-2.5.561-2.5 2.191 0 3 5.5 1.5 5.5 4.5 0 1.711-1.464 2.446-3 2.391m0-9.082V5.5m0 10.891V18.5" stroke="currentColor" stroke-linecap="round" stroke-linejoin="round"/></svg>
